X: 9848
T: Deóra Dé
R: slip jig
M: 9/8
K: Adorian
M:7/8
|:e2 A2 BAG|A2 E2 GED|e2 A2 BAG|A/B/c de aag|
e2 A2 BAG|A2 E2 GED|E/F/G AB cce|dB GB A3:|
|:[a2 A2] [e2 E2] [g2 G2][b B]|[a2 A2] [e2 E2] [c'2 c2][b B]|[g2 G2] [d2 D2] c2[d D]|B2 [d2 D2] [g2 G2][b B]|
[a2 A2] [e2 E2] [g2 G2][b B]|[a2 A2] [b2 B2] [c'2 c2][e'e]|1 [d' d][c' c] [b B][a2 A2] [g2 G2]|[d' d] [c' c] [b B] [a2 A2] [g2 G2]:|2 [d' d] [c' c] [b B][a2 A2] [a2 A2]|[a2 A2] [d' d][c' c] [b B][a2 A2]||

